X: 1759
T: Appropriate Dipstick, The
R: reel
M: 4/4
K: Gmixolydian
DG, (3G,G,G, G2 DE|FGDF CFA,C|DG, (3G,G,G, GFDE|FCA,C DG,GF|
DG, (3G,G,G, G2 DE|FGDF CFA,C|DG, (3G,G,G, GFDE|1 FCA,C DG,:|2 FCA,C DG,dc||
|:BdAB G2 c_B|AcGc F2 dc|BdAB G2 BG|(3GBg Bc dc (3ccc:|
|:e2 ec A2 Bc|d2 dB G2 AB|cAFc AFcA|1 GgBc dGcd:|2 BGGF G2||

